X:087
T:The March of the Cameron Men                 
C:Words and Melody by Mary M Campbell
B:Two Hundred and Twenty Popular Scottish Songs
Z:Nigel Gatherer
M:6/8
L:1/8
K:D
F>G|A>FA d>Af|f>ed d>cB|A>GF FED|E3-E2 F/G/|A>FA d>Af|e>dc d>cB|
A>FD E>FE|D4 || F>G|A2 D D2 D|EDE FDB|A>GF FED|E3-E2 A,|
D>DD AAA|dAF D2 A/A/|d>cd e>de|f3-f2 d/c/|B3-B2 c/d/|A3-A2 d/c/|
d>AF E>FE|D3-D2|]
<end>
<start>
